X:0137
T:2d. Quick Step. 42d. Regt.
M:6/8
L:1/8
Q:3/8=84
I: :: ::
Z:Jack Campin * www.campin.me.uk * 2009
K:G
G2B d2g|d3  c3 |B2c dcB|AFD D2B|
G2B d2g|d3  c3 |BGd cBA|GGG G2:|
A3  B3 |caa a3 |B3  c3 |dbb b3 |
d3  c3 |BcB AFD|d3  c3 |BcB A2B|
G2B d2g|d3  c3 |B2c dcB|AFD D2B|
G2B d2g|d3  c3 |BGd cBA|GGG G2:|

